X:1
T:My Father Watches over Me
T:My Father Watches over Me
T:Charles Hutchinson Gabriel
T:William Clark Martin, 1910
T:Public Domain Courtesy of the Cyber Hymnal™
T:Public Domain Courtesy of the Cyber Hymnal™
C:Charles Hutchinson Gabriel
Z:Public Domain
Z:Courtesy of the Cyber Hymnal™
%%score ( 1 2 ) ( 3 4 )
L:1/8
Q:1/4=88
M:4/4
K:Db
V:1 treble 
V:2 treble 
V:3 bass 
V:4 bass 
V:1
 ABA | [DF]3 [F-A] dced | [DE]4- [DE][=DF]GA | [Ec]3 [GB] [CE][DF][CG][GA] | A4 [FA]ABA | %5
w: 1.~I trust in|wher- ev- er I may be,|Up- * on the land,|or on the roll- ing sea,|For come what may, from|
w: 2.~He makes the|an ob- ject of His care,|He * guides the ea-|gle thro’ the path- less air,|And sure- ly He re-|
w: 3.~I trust in|for, in the li- on’s den,|On * bat- tle- field,|or in the pri- son pen,|Thro’ praise or blame, thro’|
w: 4.~The val- ley|be dark, the sha- dows deep,|But * O, the Shep-|herd guards His lone- ly sheep;|And thro’ the gloom He’ll|
 [DF]4- [DF][Fd]ed | (d4- d)dcB | [FA]Bc[Dd] [E=Gd]2 [E_Gc]2 | [Fd]4- [Fd] ||"^Refrain" AAA | %10
w: to * day, My heav’n-|ly * Fa- ther watch-|es o- ver me. * *|||
w: bers * me; My heav’n-|ly * Fa- ther watch-|es o- ver me. I trust|in *|God, I know|
w: or * flame, My heav’n-|ly * Fa- ther watch-|es o- ver me. * *|||
w: me * home, My heav’n-|ly * Fa- ther watch-|es o- ver me. * *|||
 [Ge]3 [Ge] [Af][Ge][Ge][Fd] | A4 Add[Fd] | d3 z d[=Gd][EB][Ec][Ed] | e4- !fermata![_Ge][EA][DA]A | %14
w: ||||
w: He cares for me; On mount-|ain bleak or on the|storm- y sea; Tho’ bil- lows|roll, He keeps my soul;|
w: ||||
w: ||||
 f4- [Af][Fd]ed | d4- (z2 d)[Gd][=Ec][EB] | [FA][EB][Ec][Dd] [=Gd]2 [_Gc]2 | [Fd]4- [Fd] |] %18
w: ||||
w: My heav’n- ly Fa- ther|watch- * es o- ver|* me. * * * *||
w: ||||
w: ||||
V:2
 D3- | x4 F4 | x6 E2 | x8 | (F G A G D3-) x | x6 A2 | G6 =E2 | x E2 x5 | x5 || AAA | x8 | %11
 (FGAE F3) x | (FF F2) x5 | (A E A =G x2 A) x | (A A A A x A2) x | GG G3 x5 | x8 | x5 |] %18
V:3
 F,G,F, | ([D,A,][D,A,]) [F,A,]6 | ([G,B,] [G,B,] [G,B,] [G,B,] B,3) [C,A,] | %3
w: ~ ~ ~|~ * ~|~ * * * * ~|
 ([A,,A,][A,,A,] [A,,A,]2) A,2 [E,A,][A,,C] | ([D,D][E,C][F,D][A,C]) DF,G,F, | %5
w: ~ * * ~ ~ ~|~ * * * ~ ~ ~ ~|
 ([D,A,][D,A,][D,A,][D,A,] [D,A,]2) [F,_C]2 | ([G,B,][G,B,][G,B,][G,B,] [G,B,]2) [=G,D]2 | %7
w: ~ * * * * ~|~ * * * * ~|
 D2 A,2 [E,B,]2 [A,,A,]2 | [D,A,]4- [D,A,] || A,A,A, | [A,,C]3 [A,,C] [A,,C][A,,C][D,A,][D,A,] | %11
w: ~ ~ ~ ~|~ *|~ ~ ~|~ ~ ~ ~ ~ ~|
 [D,D][E,C][F,D][A,E] [D,E]3 [D,A,] | [B,,B,][B,,B,] [B,,B,]2 ([E,B,][D,=G,])[C,A,][B,,B,] x | %13
w: ~ ~ ~ ~ ~ ~|He cares for me, * On mount-|
 [A,,C][B,,D][C,E][E,D] [A,C][G,C][F,D][E,C] | [D,D][D,D][F,D][A,D] DA,A,_C | %15
w: ain bleak or on the sea, the storm-|y sea ~ ~ ~ ~ tho’ bil-|
 [G,B,][G,B,] [G,B,]3 [G,B,][=G,D][G,D] x2 | [A,D][=G,D][_G,A,][F,A,] [E,B,]2 [A,,A,E]2 | %17
w: lows roll, He ~ ~ keeps|my soul * * * *|
 [D,A,]4- [D,A,] |] %18
w: |
V:4
 D,3 | x8 | x4 G,F,E, x | x4 G,F, x2 | x4 D,4 | x8 | x8 | A,=G,_G,F, x4 | x5 || A,A,A, | x8 | x8 | %12
 x9 | x8 | x4 D,2 F,2 | x10 | x8 | x5 |] %18

